modules/feathericon/icons/medal.svg

<?xml version="1.0" encoding="UTF-8"?>
<svg width="10px" height="14px" viewBox="0 0 10 14" version="1.1" xmlns="http://www.w3.org/2000/svg" xmlns:xlink="http://www.w3.org/1999/xlink">
    <!-- Generator: sketchtool 48.1 (47250) - http://www.bohemiancoding.com/sketch -->
    <title>medal</title>
    <desc>Created with sketchtool.</desc>
    <defs></defs>
    <g id="event" stroke="none" stroke-width="1" fill="none" fill-rule="evenodd">
        <g id="medal" fill="#000000">
            <path d="M2,0 L4,0 L4,3 L2,3 L2,0 Z M6,0 L8,0 L8,3 L6,3 L6,0 Z M5,4 C4.44771525,4 4,3.55228475 4,3 C4,2.44771525 4.44771525,2 5,2 C5.55228475,2 6,2.44771525 6,3 C6,3.55228475 5.55228475,4 5,4 Z M5,14 C2.23857625,14 0,11.7614237 0,9 C0,6.23857625 2.23857625,4 5,4 C7.76142375,4 10,6.23857625 10,9 C10,11.7614237 7.76142375,14 5,14 Z M5,6 L2.87867966,6.87867966 L2,9 L2.87867966,11.1213203 L5,12 L7.12132034,11.1213203 L8,9 L7.12132034,6.87867966 L5,6 Z" id="Shape"></path>
        </g>
    </g>
</svg>

<svg width="10" height="14" viewBox="0 0 10 14" xmlns="http://www.w3.org/2000/svg"><path d="M2 0h2v3H2V0zm4 0h2v3H6V0zM5 4a1 1 0 1 1 0-2 1 1 0 0 1 0 2zm0 10A5 5 0 1 1 5 4a5 5 0 0 1 0 10zm0-8l-2.121.879L2 9l.879 2.121L5 12l2.121-.879L8 9l-.879-2.121L5 6z" fill="#000" fill-rule="evenodd"/></svg>
